X:76
T:Rights Of Man, The
S:The Session: https://thesession.org/tunes/83#setting83
C:Traditional
R:hornpipe
K:Em
M:4/4
L:1/8
Q:1/4=138
|: GA| B2A2 G2F2| EFGA B2ef| gfed edBd| cBAG A2GA| 
|BcAB GAFG| EFGA B2ef| gfed Bgfg|1 e2 E2 E2 GA :|2 e2 E2 E2 ga |]
|: babg efga| babg egfe| d^cde fefg| afdf a2gf|
! edef gfga| bgaf gfef| gfed Bgfg|1 e2 E2 E2 ga:|2 e2 E2 E4 |]

